svgs/duotone/laptop-medical.svg

<svg xmlns="http://www.w3.org/2000/svg" viewBox="0 0 640 512"><!--! Font Awesome Pro 6.3.0 by @fontawesome - https://fontawesome.com License - https://fontawesome.com/license (Commercial License) Copyright 2023 Fonticons, Inc. --><defs><style>.fa-secondary{opacity:.4}</style></defs><path class="fa-primary" d="M128 96v256h384V96H128zM416 240c0 8.8-7.2 15.1-16 15.1H352V303.1C352 312.8 344.8 320 336 320h-32C295.2 320 288 312.8 288 303.1V255.1H240C231.2 255.1 224 248.8 224 240V207.1C224 199.2 231.2 192 240 192H288V144C288 135.2 295.2 128 304 128h32C344.8 128 352 135.2 352 144V192h48C408.8 192 416 199.2 416 207.1V240z"/><path class="fa-secondary" d="M128 96h384v256h64V80C576 53.63 554.4 32 528 32h-416C85.63 32 64 53.63 64 80V352h64V96zM624 384h-608C7.25 384 0 391.3 0 400V416c0 35.25 28.75 64 64 64h512c35.25 0 64-28.75 64-64v-16C640 391.3 632.8 384 624 384z"/></svg>

<svg xmlns="http://www.w3.org/2000/svg" viewBox="0 0 640 512"><!-- Font Awesome Pro 6.0.0-alpha2 by @fontawesome - https://fontawesome.com License - https://fontawesome.com/license (Commercial License) --><defs><style>.fa-secondary{opacity:.4}</style></defs><path d="M128 96H512V352H576V80C576 53.625 554.375 32 528 32H112C85.625 32 64 53.625 64 80V352H128V96ZM624 384H16C7.25 384 0 391.25 0 400V416C0 451.25 28.75 480 64 480H576C611.25 480 640 451.25 640 416V400C640 391.25 632.75 384 624 384Z" class="fa-secondary"/><path d="M128 96V352H512V96H128ZM416 240C416 248.8 408.8 256 400 256H352V304C352 312.8 344.8 320 336 320H304C295.2 320 288 312.8 288 304V256H240C231.2 256 224 248.8 224 240V208C224 199.2 231.2 192 240 192H288V144C288 135.2 295.2 128 304 128H336C344.8 128 352 135.2 352 144V192H400C408.8 192 416 199.2 416 208V240Z" class="fa-primary"/></svg>
